assets/images/svg/theme-star-fill.svg

<svg width="17" height="16" viewBox="0 0 17 16" fill="none" xmlns="http://www.w3.org/2000/svg">
<g clip-path="url(#clip0_430_13017)">
<path d="M10.2886 1.15534L11.6965 3.9943C11.8884 4.3895 12.4004 4.76856 12.8323 4.84115L15.384 5.2686C17.0159 5.54282 17.3998 6.73647 16.224 7.914L14.2402 9.91417C13.9042 10.2529 13.7202 10.9062 13.8242 11.374L14.3922 13.85C14.8401 15.8098 13.8082 16.568 12.0884 15.5437L9.69666 14.1162C9.26471 13.8581 8.55279 13.8581 8.11284 14.1162L5.7211 15.5437C4.00929 16.568 2.96941 15.8018 3.41736 13.85L3.9853 11.374C4.08928 10.9062 3.9053 10.2529 3.56934 9.91417L1.58556 7.914C0.417694 6.73647 0.793653 5.54282 2.42547 5.2686L4.97719 4.84115C5.40114 4.76856 5.91308 4.3895 6.10506 3.9943L7.51291 1.15534C8.28082 -0.385113 9.52868 -0.385113 10.2886 1.15534Z" fill="#F58218"/>
</g>
<defs>
<clipPath id="clip0_430_13017">
<rect width="16" height="16" fill="white" transform="translate(0.906494)"/>
</clipPath>
</defs>
</svg>

<svg xmlns="http://www.w3.org/2000/svg" width="17" height="16" fill="none" viewBox="0 0 17 16"><g clip-path="url(#a)"><path fill="#f58218" d="m10.289 1.155 1.408 2.84c.191.394.703.774 1.135.846l2.552.428c1.632.274 2.016 1.467.84 2.645l-1.984 2c-.336.339-.52.992-.416 1.46l.568 2.476c.448 1.96-.584 2.718-2.304 1.694l-2.391-1.428c-.432-.258-1.144-.258-1.584 0L5.72 15.544c-1.712 1.024-2.752.258-2.304-1.694l.568-2.476c.104-.468-.08-1.121-.416-1.46l-1.983-2c-1.168-1.178-.792-2.371.84-2.645l2.551-.428c.424-.072.936-.452 1.128-.847l1.408-2.839c.768-1.54 2.016-1.54 2.776 0"/></g><defs><clipPath id="a"><path fill="#fff" d="M.906 0h16v16h-16z"/></clipPath></defs></svg>
